X: 27046
T: Miss Hamilton's
R: reel
M: 4/4
K: Dminor
|:Lde|fdcA FcAc|c2 Gc EcGc|fdcA FcAc|ed^cB c2 de|
fdcA FcAc|EcGc EcGc|fedc dcAG|FGEF D2:|
|:A2|d^cde fefg|agab agfe|d^cde fefg|agfe dcBA|
dAeA fAgA|agab agfe|fedc dcAG|FGEF D2:|

